X: 2
T: Aald St\"or Back Again
O: Shetland
M: C|
L: 1/8
N: A st\"or is an old coin
Z: 2005 John Chambers <jc:trillian.mit.edu>
K: Em
(D | "Em"E2)EF  GAB2   | "D"(AB)AF ABA(F | "Em"ED)EF GAB(e | "D"dB)AF "Em"E3 :|
(B | "Em"e2)e(B e2)e(B | "D"d2)dB  ded(B | "Em"e2)eB efe(B | "D"dB)AF "Em"E3 ||
(B | "Em"e2)e(B e2)e(B | "D"d2)dB  ded(B | "Em"e2)eB egf(e | "D"dB)AF "Em"E3 |]
